X:27
%%pagewidth 9in
%%vocalfont Baskerville10Pro 14
%%score 1 2
T: My Little Pretty One
M: 3/4
L: 1/4
K:G
V:1 clef-treble
V:2 clef-bass octave=-1
V:1
DD[DG]|F>GF|GGc & C2E|B>cB & D3|
w:My lit-tle pret-ty one, My pret-ty ho-ney one,
V:2
G2x & B,2G,|A3 & D3|E2C|G3|
V:1
[GB]dB & xG2|A>GF & E2D|GF>E|"^rall."(A/B/c/B/)(A/G/) & EEE|F3||
w:She is a joy-ly one, And gen-tle as . . . can* be.
w:|joy-ous||||
V:2
EB,2|C2D|B3 & E3|CA,C|A3 & D3||
V:1
"^a tempo"D/>D/GF|E>E[A,D]|D/>D/EG & B,Cx|F>GA & A,2E|
w:With a beck she comes a-non, With a wink she will be gone.
V:2
[DF][B,G]2|[CG]2F,|G,C,2|D,2C,|
V:1
[^DB][EG][F=d]|B>cd & G2G|"^rall."e/d/cB & GAG|A>BA & F2F|[GB]3||
w:No doubt she is a-lone of* all that e-ver I see. 
V:2
B,,E,=D,|G,2B,,|C,3|D,2D,|G,3||

